web/ui/src/components/theme/drawer/svgs/close.svg

<?xml version="1.0" encoding="UTF-8"?>
<svg width="24px" height="24px" viewBox="0 0 24 24" version="1.1" xmlns="http://www.w3.org/2000/svg" xmlns:xlink="http://www.w3.org/1999/xlink">
    <title>编组 6</title>
    <g id="页面-1" stroke="none" stroke-width="1" fill="none" fill-rule="evenodd">
        <g id="建木-任务定义-新建任务-输入参数弹窗" transform="translate(-1874.000000, -19.000000)" fill-rule="nonzero">
            <g id="编组-22备份" transform="translate(0.000000, -1.000000)">
                <g id="关闭" transform="translate(1874.000000, 20.000000)">
                    <rect id="矩形" fill="#000000" opacity="0" x="2" y="2" width="20" height="20"></rect>
                    <path d="M19.9583333,4.04166667 C20.4583333,4.54166667 20.4583333,5.29166667 19.9583333,5.66666667 L13.2083333,12.4166667 L19.9583333,19.1666667 C20.4583333,19.6666667 20.4583333,20.4166667 19.9583333,20.7916667 C19.4583333,21.2916667 18.7083333,21.2916667 18.3333333,20.7916667 L11.5833333,14.0416667 L4.83333333,20.7916667 C4.33333333,21.2916667 3.58333333,21.2916667 3.20833333,20.7916667 C2.70833333,20.2916667 2.70833333,19.5416667 3.20833333,19.1666667 L9.95833333,12.4166667 L3.20833333,5.66666667 C2.70833333,5.16666667 2.70833333,4.41666667 3.20833333,4.04166667 C3.70833333,3.66666667 4.45833333,3.54166667 4.83333333,4.04166667 L11.5833333,10.7916667 L18.3333333,4.04166667 C18.7083333,3.54166667 19.5833333,3.54166667 19.9583333,4.04166667 Z" id="路径" fill="#FFFFFF"></path>
                </g>
            </g>
        </g>
    </g>
</svg>

<svg height="24" viewBox="0 0 24 24" width="24" xmlns="http://www.w3.org/2000/svg"><g fill="none"><path d="m2 2h20v20h-20z" fill="#000" opacity="0"/><path d="m19.9583333 4.04166667c.5.5.5 1.25 0 1.625l-6.75 6.75000003 6.75 6.75c.5.5.5 1.25 0 1.625-.5.5-1.25.5-1.625 0l-6.75-6.75-6.74999997 6.75c-.5.5-1.25.5-1.625 0-.5-.5-.5-1.25 0-1.625l6.75-6.75-6.75-6.75000003c-.5-.5-.5-1.25 0-1.625s1.25-.5 1.625 0l6.74999997 6.75000003 6.75-6.75000003c.375-.5 1.25-.5 1.625 0z" fill="#fff"/></g></svg>
